X:219
T:Sally Gal
T:Tie Your Dog Sally Gal
M:C
K:G
"G"gage d2 ed | B2 GB "D" AGED | "G"gage d2 ed | BAG2 "F"A4|
"G"gage d2 ed | BBGB "D" AGED | "G"gage d2 ed | BAG2 "F"A4 :|
"C" c4 "D" d4 | "G" BAGB AGED | "C" c2 c2 "D" d3 d | "G" BA G2 "D" A4 |
"C" cAcA "D" d2d2 | "G" BAGB AGED |"C" cAcA "D" dAdA |"G" BA G2 "D" A4 ||
K:C
"F" F4 "G"G4 | "C" EDCE DCDE | "F" F2F2 "G"G3 G| "C"ED C2 "G"D4|
"F" FDFD "G"G2 GG | "C" EDCE DCDE |"F" FDFD "G"G2 GG | "C"ED C2 "G"D4|
